symbols/web/settings_ethernet/materialsymbolsoutlined/settings_ethernet_wght700_40px.svg

<svg xmlns="http://www.w3.org/2000/svg" height="40" width="40"><path d="m28.333 31.125-3.125-3.083L33.25 20l-8.042-8.042 3.125-3.083L39.458 20Zm-16.583 0L.583 20 11.75 8.875l3.083 3.083-8 8.042 8 8.042Zm1.958-9.333q-.75 0-1.27-.521-.521-.521-.521-1.271 0-.75.521-1.271.52-.521 1.27-.521t1.271.521q.521.521.521 1.271 0 .75-.521 1.271-.521.521-1.271.521Zm6.292 0q-.75 0-1.271-.521-.521-.521-.521-1.271 0-.75.521-1.271.521-.521 1.271-.521.75 0 1.271.521.521.521.521 1.271 0 .75-.521 1.271-.521.521-1.271.521Zm6.292 0q-.75 0-1.25-.521t-.5-1.271q0-.75.5-1.271.5-.521 1.25-.521t1.27.521q.521.521.521 1.271 0 .75-.521 1.271-.52.521-1.27.521Z"/></svg>

<svg xmlns="http://www.w3.org/2000/svg" height="40" width="40"><path d="M28.333 31.125 25.208 28.042 33.25 20 25.208 11.958 28.333 8.875 39.458 20ZM11.75 31.125 0.583 20 11.75 8.875 14.833 11.958 6.833 20 14.833 28.042ZM13.708 21.792Q12.958 21.792 12.438 21.271Q11.917 20.75 11.917 20Q11.917 19.25 12.438 18.729Q12.958 18.208 13.708 18.208Q14.458 18.208 14.979 18.729Q15.5 19.25 15.5 20Q15.5 20.75 14.979 21.271Q14.458 21.792 13.708 21.792ZM20 21.792Q19.25 21.792 18.729 21.271Q18.208 20.75 18.208 20Q18.208 19.25 18.729 18.729Q19.25 18.208 20 18.208Q20.75 18.208 21.271 18.729Q21.792 19.25 21.792 20Q21.792 20.75 21.271 21.271Q20.75 21.792 20 21.792ZM26.292 21.792Q25.542 21.792 25.042 21.271Q24.542 20.75 24.542 20Q24.542 19.25 25.042 18.729Q25.542 18.208 26.292 18.208Q27.042 18.208 27.562 18.729Q28.083 19.25 28.083 20Q28.083 20.75 27.562 21.271Q27.042 21.792 26.292 21.792Z"/></svg>
